;FLAVOR:Marlin
;TIME:11221
;Filament used: 5.20708m
;Layer height: 0.15
;MINX:78.96
;MINY:88.92
;MINZ:0.2
;MAXX:158.866
;MAXY:144.534
;MAXZ:92.9
;Generated with Cura_SteamEngine 4.13.0
M140 S50
M105
M190 S50
M104 S215
M105
M109 S215
M82 ;absolute extrusion mode
; Ender 3 Custom Start G-code
G92 E0 ; Reset Extruder
G28 ; Home all axes
G1 Z2.0 F3000 ; Move Z Axis up little to prevent scratching of Heat Bed
G1 X0.1 Y20 Z0.3 F5000.0 ; Move to start position
G1 X0.1 Y200.0 Z0.3 F1500.0 E15 ; Draw the first line
G1 X0.4 Y200.0 Z0.3 F5000.0 ; Move to side a little
G1 X0.4 Y20 Z0.3 F1500.0 E30 ; Draw the second line
G92 E0 ; Reset Extruder
G1 Z2.0 F3000 ; Move Z Axis up little to prevent scratching of Heat Bed
G1 X5 Y20 Z0.3 F5000.0 ; Move over to prevent blob squish
G92 E0
G92 E0
G1 F2700 E-5
;LAYER_COUNT:619
;LAYER:0
M107
G0 F6000 X85.004 Y91.955 Z0.2
;TYPE:SKIRT
G1 F2700 E0
G1 F1200 X85.721 Y91.351 E0.03118
G1 X86.487 Y90.811 E0.06235
G1 X87.297 Y90.337 E0.09357
G1 X88.144 Y89.934 E0.12477
G1 X89.106 Y89.578 E0.15888
G1 X89.304 Y89.515 E0.16579
G1 X90.492 Y89.209 E0.2066
G1 X90.703 Y89.167 E0.21375
G1 X91.978 Y88.99 E0.25656
G1 X92.217 Y88.971 E0.26454
G1 X92.885 Y88.938 E0.28678
G1 X93.748 Y88.922 E0.31549
G1 X93.971 Y88.92 E0.32291
G1 X95.153 Y88.922 E0.36222
G1 X104.007 Y88.92 E0.65671
G1 X104.835 Y88.931 E0.68425
G1 X105.781 Y88.986 E0.71577
G1 X106.235 Y89.04 E0.73097
G1 X108.885 Y89.407 E0.81995
G1 X111.37 Y89.68 E0.9031
G1 X113.916 Y89.887 E0.98806
G1 X115.374 Y89.964 E1.03662
G1 X116.111 Y90.012 E1.06119
G1 X116.607 Y90.056 E1.07775
G1 X117.063 Y90.114 E1.09304
G1 X117.267 Y90.144 E1.0999
G1 X119.824 Y90.493 E1.18573
G1 X122.344 Y90.764 E1.27003
G1 X124.873 Y90.964 E1.35441
G1 X126.554 Y91.053 E1.4104
G1 X126.821 Y91.071 E1.4193
G1 X127.237 Y91.107 E1.43318
G1 X127.36 Y91.12 E1.4373
G1 X127.713 Y91.163 E1.44913
G1 X130.366 Y91.53 E1.53821
G1 X132.855 Y91.804 E1.62149
G1 X135.392 Y92.01 E1.70615
G1 X137.194 Y92.107 E1.76617
G1 X137.563 Y92.132 E1.77847
G1 X138.06 Y92.177 E1.79507
G1 X138.434 Y92.222 E1.8076
G1 X141.077 Y92.588 E1.89634
G1 X143.589 Y92.865 E1.9804
G1 X146.102 Y93.069 E2.06426
G1 X148.053 Y93.176 E2.12925
G1 X148.378 Y93.199 E2.14008
G1 X149.309 Y93.305 E2.17125
G1 X150.229 Y93.49 E2.20246
G1 X151.129 Y93.753 E2.23365
G1 X152.278 Y94.216 E2.27485
G1 X152.476 Y94.309 E2.28212
G1 X153.307 Y94.743 E2.3133
G1 X154.098 Y95.247 E2.3445
G1 X154.843 Y95.816 E2.37568
G1 X155.537 Y96.447 E2.40688
G1 X156.175 Y97.135 E2.43808
G1 X156.752 Y97.874 E2.46927
G1 X157.264 Y98.66 E2.50047
G1 X157.707 Y99.486 E2.53164
G1 X158.078 Y100.348 E2.56286
G1 X158.374 Y101.238 E2.59405
G1 X158.509 Y101.755 E2.61182
G1 X158.58 Y102.058 E2.62217
G1 X158.755 Y102.98 E2.65339
G1 X158.85 Y103.913 E2.68458
G1 X158.866 Y104.851 E2.71578
G1 X158.802 Y105.786 E2.74695
G1 X158.658 Y106.716 E2.77825
G1 X158.612 Y106.947 E2.78609
G1 X158.487 Y107.502 E2.80501
G1 X157.827 Y110.106 E2.89436
G1 X157.273 Y112.575 E2.97852
G1 X156.803 Y115.005 E3.06084
G1 X156.388 Y117.523 E3.14572
G1 X156.05 Y120.001 E3.2289
G1 X155.782 Y122.498 E3.31243
G1 X155.584 Y125.014 E3.39637
G1 X155.459 Y127.504 E3.47929
G1 X155.398 Y130.669 E3.58458
G1 X155.392 Y132.997 E3.66201
G1 X155.381 Y133.688 E3.68499
G1 X155.326 Y134.624 E3.71618
G1 X155.191 Y135.553 E3.7474
G1 X154.978 Y136.466 E3.77858
G1 X154.688 Y137.358 E3.80978
G1 X154.323 Y138.222 E3.84098
G1 X153.886 Y139.051 E3.87214
G1 X153.38 Y139.841 E3.90335
G1 X152.808 Y140.584 E3.93454
G1 X152.175 Y141.276 E3.96573
G1 X151.485 Y141.912 E3.99694
G1 X150.744 Y142.487 E4.02813
G1 X149.957 Y142.996 E4.05931
G1 X149.128 Y143.436 E4.09052
G1 X148.266 Y143.805 E4.12171
G1 X147.375 Y144.098 E4.15291
G1 X146.463 Y144.314 E4.18408
G1 X145.535 Y144.452 E4.21528
G1 X144.611 Y144.511 E4.24608
G1 X143.603 Y144.532 E4.27961
G1 X143.374 Y144.534 E4.28723
G1 X90.498 Y144.533 E6.04589
G1 X89.813 Y144.523 E6.06868
G1 X88.877 Y144.469 E6.09986
G1 X87.949 Y144.336 E6.13104
G1 X87.035 Y144.124 E6.16225
G1 X86.143 Y143.835 E6.19343
G1 X85.278 Y143.471 E6.22465
G1 X84.448 Y143.035 E6.25583
G1 X83.658 Y142.53 E6.28702
G1 X82.914 Y141.959 E6.31821
G1 X82.221 Y141.327 E6.3494
G1 X81.584 Y140.638 E6.38061
G1 X81.009 Y139.898 E6.41178
G1 X80.498 Y139.111 E6.44299
G1 X80.057 Y138.284 E6.47417
G1 X79.688 Y137.421 E6.50538
G1 X79.393 Y136.531 E6.53657
G1 X79.175 Y135.619 E6.56776
G1 X79.036 Y134.691 E6.59897
G1 X78.977 Y133.769 E6.62969
G1 X78.962 Y133.095 E6.65212
G1 X78.96 Y132.705 E6.66509
G1 X78.978 Y131.413 E6.70806
G1 X78.995 Y130.775 E6.72929
G1 X78.979 Y127.521 E6.83752
G1 X78.962 Y126.726 E6.86397
G1 X78.962 Y126.241 E6.8801
G1 X78.965 Y126.107 E6.88456
G1 X79.015 Y125.279 E6.91215
G1 X79.165 Y123.755 E6.96308
G1 X79.191 Y123.524 E6.97081
G1 X79.395 Y121.03 E7.05404
G1 X79.528 Y118.549 E7.13668
G1 X79.601 Y115.065 E7.25258
G1 X79.606 Y112.64 E7.33324
G1 X79.62 Y111.762 E7.36244
G1 X79.675 Y110.826 E7.39363
G1 X79.807 Y109.914 E7.42428
G1 X80.055 Y108.602 E7.46869
G1 X80.125 Y108.257 E7.4804
G1 X80.557 Y105.772 E7.56429
G1 X80.911 Y103.314 E7.64689
G1 X81.208 Y100.759 E7.73244
G1 X81.23 Y100.509 E7.74078
G1 X81.365 Y99.144 E7.78641
G1 X81.497 Y98.216 E7.81758
G1 X81.708 Y97.302 E7.84878
G1 X81.996 Y96.409 E7.87999
G1 X82.358 Y95.544 E7.91118
G1 X82.794 Y94.714 E7.94236
G1 X83.298 Y93.923 E7.97356
G1 X83.607 Y93.503 E7.9909
G1 X83.736 Y93.336 E7.99792
G1 X84.34 Y92.618 E8.02912
G1 X85.004 Y91.955 E8.06033
G0 F6000 X85.299 Y92.227
G1 F1200 X86.006 Y91.637 E8.09096
G1 X86.761 Y91.111 E8.12156
G1 X87.559 Y90.651 E8.1522
G1 X88.393 Y90.263 E8.18279
G1 X89.227 Y89.959 E8.21232
G1 X89.425 Y89.896 E8.21923
G1 X90.57 Y89.601 E8.25856
G1 X90.781 Y89.559 E8.26571
G1 X92.01 Y89.388 E8.30698
G1 X92.249 Y89.369 E8.31496
G1 X92.893 Y89.338 E8.3364
G1 X93.756 Y89.322 E8.36511
G1 X93.97 Y89.32 E8.37223
G1 X95.152 Y89.322 E8.41154
G1 X104.007 Y89.32 E8.70606
G1 X104.829 Y89.331 E8.7334
G1 X105.74 Y89.384 E8.76375
G1 X106.18 Y89.436 E8.77849
G1 X108.823 Y89.802 E8.86723
G1 X111.365 Y90.081 E8.95229
G1 X113.86 Y90.285 E9.03555
G1 X115.348 Y90.363 E9.08511
G1 X116.085 Y90.411 E9.10967
G1 X116.564 Y90.453 E9.12567
G1 X117.004 Y90.51 E9.14042
G1 X117.153 Y90.532 E9.14543
G1 X119.799 Y90.893 E9.23425
G1 X122.303 Y91.163 E9.31802
G1 X124.822 Y91.362 E9.40206
G1 X126.527 Y91.452 E9.45885
G1 X126.794 Y91.47 E9.46775
G1 X127.195 Y91.505 E9.48114
G1 X127.658 Y91.559 E9.49664
G1 X130.304 Y91.925 E9.58549
G1 X132.847 Y92.205 E9.67058
G1 X135.339 Y92.407 E9.75374
G1 X137.167 Y92.506 E9.81462
G1 X137.536 Y92.531 E9.82692
G1 X138.019 Y92.575 E9.84306
G1 X138.379 Y92.618 E9.85511
G1 X141.046 Y92.987 E9.94466
G1 X143.55 Y93.263 E10.02845
G1 X146.085 Y93.469 E10.11304
G1 X148.024 Y93.575 E10.17763
G1 X148.349 Y93.598 E10.18847
G1 X149.264 Y93.703 E10.2191
G1 X150.166 Y93.887 E10.24972
G1 X151.049 Y94.148 E10.28035
G1 X152.107 Y94.578 E10.31833
G1 X152.305 Y94.671 E10.32561
G1 X153.121 Y95.098 E10.35624
G1 X153.896 Y95.594 E10.38684
G1 X154.626 Y96.156 E10.41748
G1 X155.304 Y96.779 E10.44811
G1 X155.925 Y97.458 E10.47871
G1 X156.485 Y98.189 E10.50934
G1 X156.979 Y98.966 E10.53996
G1 X157.405 Y99.782 E10.57058
G1 X157.757 Y100.633 E10.60121
G1 X158.119 Y101.847 E10.64334
G1 X158.19 Y102.15 E10.65369
G1 X158.361 Y103.054 E10.6843
G1 X158.453 Y103.97 E10.71491
G1 X158.465 Y104.891 E10.74555
G1 X158.397 Y105.809 E10.77617
G1 X158.266 Y106.638 E10.80408
G1 X158.22 Y106.869 E10.81192
G1 X158.099 Y107.403 E10.83013
G1 X157.445 Y109.983 E10.91865
G1 X156.876 Y112.516 E11.005
G1 X156.409 Y114.935 E11.08694
G1 X155.996 Y117.44 E11.17138
G1 X155.65 Y119.975 E11.25648
G1 X155.384 Y122.459 E11.33957
G1 X155.187 Y124.961 E11.42304
G1 X155.059 Y127.509 E11.5079
G1 X154.998 Y130.66 E11.61272
G1 X154.992 Y132.991 E11.69025
G1 X154.981 Y133.682 E11.71323
G1 X154.926 Y134.601 E11.74386
G1 X154.792 Y135.512 E11.77448
G1 X154.579 Y136.407 E11.80508
G1 X154.29 Y137.281 E11.8357
G1 X153.925 Y138.127 E11.86634
G1 X153.489 Y138.937 E11.89694
G1 X152.984 Y139.707 E11.92757
G1 X152.414 Y140.43 E11.95819
G1 X151.783 Y141.101 E11.98882
G1 X151.097 Y141.715 E12.01944
G1 X150.36 Y142.266 E12.05005
G1 X149.578 Y142.752 E12.08067
G1 X148.757 Y143.168 E12.11128
G1 X147.902 Y143.511 E12.14193
G1 X147.022 Y143.779 E12.17252
G1 X146.121 Y143.969 E12.20315
G1 X145.207 Y144.081 E12.23377
G1 X144.603 Y144.111 E12.25389
G1 X143.595 Y144.132 E12.28742
G1 X143.374 Y144.134 E12.29477
G1 X90.504 Y144.133 E14.05324
G1 X89.819 Y144.123 E14.07602
G1 X88.9 Y144.069 E14.10664
G1 X87.989 Y143.937 E14.13726
G1 X87.093 Y143.725 E14.16788
G1 X86.219 Y143.437 E14.19849
G1 X85.373 Y143.073 E14.22912
G1 X84.562 Y142.638 E14.25973
G1 X83.791 Y142.134 E14.29037
G1 X83.067 Y141.565 E14.32099
G1 X82.396 Y140.935 E14.35161
G1 X81.781 Y140.25 E14.38222
G1 X81.228 Y139.514 E14.41284
G1 X80.742 Y138.732 E14.44347
G1 X80.325 Y137.911 E14.47409
G1 X79.98 Y137.058 E14.5047
G1 X79.711 Y136.177 E14.53533
G1 X79.52 Y135.277 E14.56594
G1 X79.407 Y134.363 E14.59657
G1 X79.377 Y133.76 E14.61665
G1 X79.362 Y133.086 E14.63907
G1 X79.36 Y132.711 E14.65154
G1 X79.378 Y131.424 E14.69435
G1 X79.395 Y130.784 E14.71565
G1 X79.379 Y127.511 E14.82451
G1 X79.362 Y126.718 E14.85089
G1 X79.362 Y126.25 E14.86646
G1 X79.365 Y126.116 E14.87091
G1 X79.413 Y125.318 E14.8975
G1 X79.562 Y123.799 E14.94827
G1 X79.588 Y123.567 E14.95603
G1 X79.794 Y121.048 E15.04009
G1 X79.929 Y118.547 E15.1234
G1 X80.001 Y115.075 E15.2389
G1 X80.007 Y112.484 E15.32508
G1 X80.019 Y111.769 E15.34886
G1 X80.075 Y110.85 E15.37949
G1 X80.201 Y109.988 E15.40846
G1 X80.447 Y108.682 E15.45266
G1 X80.517 Y108.339 E15.46431
G1 X80.956 Y105.809 E15.54971
G1 X81.311 Y103.346 E15.63248
G1 X81.602 Y100.838 E15.71645
G1 X81.628 Y100.549 E15.72611
G1 X81.763 Y99.184 E15.77173
G1 X81.894 Y98.272 E15.80237
G1 X82.103 Y97.376 E15.83297
G1 X82.389 Y96.501 E15.86359
G1 X82.749 Y95.654 E15.8942
G1 X83.182 Y94.841 E15.92484
G1 X83.923 Y93.747 E15.96879
G1 X84.052 Y93.58 E15.9758
G1 X84.646 Y92.877 E16.00642
G1 X85.299 Y92.227 E16.03706
G0 F6000 X85.594 Y92.5
G1 F1200 X86.289 Y91.924 E16.06708
G1 X87.033 Y91.412 E16.09712
G1 X87.819 Y90.967 E16.12716
G1 X88.642 Y90.594 E16.15722
G1 X89.348 Y90.34 E16.18217
G1 X89.546 Y90.277 E16.18908
G1 X90.648 Y89.993 E16.22693
G1 X90.859 Y89.951 E16.23409
G1 X92.042 Y89.787 E16.27381
G1 X92.281 Y89.768 E16.28179
G1 X92.9 Y89.738 E16.3024
G1 X93.763 Y89.722 E16.33111
G1 X93.969 Y89.72 E16.33796
G1 X95.151 Y89.722 E16.37727
G1 X104.007 Y89.72 E16.67182
G1 X104.823 Y89.731 E16.69897
G1 X105.7 Y89.782 E16.72818
G1 X106.125 Y89.832 E16.74242
G1 X108.796 Y90.202 E16.8321
G1 X111.325 Y90.479 E16.91672
G1 X113.839 Y90.685 E17.00062
G1 X115.322 Y90.763 E17.05001
G1 X116.059 Y90.811 E17.07458
G1 X116.522 Y90.851 E17.09003
G1 X116.945 Y90.905 E17.10422
G1 X117.12 Y90.931 E17.1101
G1 X119.773 Y91.293 E17.19916
G1 X122.265 Y91.561 E17.28252
G1 X124.806 Y91.762 E17.3673
G1 X126.5 Y91.851 E17.42372
G1 X126.767 Y91.869 E17.43262
G1 X127.153 Y91.902 E17.4455
G1 X127.276 Y91.915 E17.44962
G1 X127.603 Y91.955 E17.46057
G1 X130.276 Y92.325 E17.55033
G1 X132.806 Y92.603 E17.63498
G1 X135.319 Y92.807 E17.71884
G1 X137.139 Y92.905 E17.77946
G1 X137.508 Y92.93 E17.79176
G1 X137.872 Y92.961 E17.80391
G1 X137.978 Y92.972 E17.80746
G1 X138.324 Y93.014 E17.81905
G1 X140.984 Y93.382 E17.90836
G1 X143.544 Y93.665 E17.99403
G1 X146.03 Y93.867 E18.07698
G1 X147.996 Y93.974 E18.14247
G1 X148.321 Y93.997 E18.15331
G1 X149.218 Y94.101 E18.18334
G1 X150.103 Y94.284 E18.2134
G1 X150.968 Y94.544 E18.24344
G1 X151.937 Y94.94 E18.27826
G1 X152.135 Y95.033 E18.28553
G1 X152.935 Y95.452 E18.31557
G1 X153.694 Y95.941 E18.3456
G1 X154.408 Y96.495 E18.37566
G1 X155.069 Y97.11 E18.40569
G1 X155.673 Y97.781 E18.43571
G1 X156.216 Y98.503 E18.46576
G1 X156.693 Y99.27 E18.4958
G1 X157.099 Y100.077 E18.52585
G1 X157.433 Y100.916 E18.55588
G1 X157.73 Y101.938 E18.59128
G1 X157.801 Y102.241 E18.60163
G1 X157.968 Y103.128 E18.63165
G1 X158.056 Y104.027 E18.6617
G1 X158.064 Y104.93 E18.69173
G1 X157.992 Y105.831 E18.72179
G1 X157.874 Y106.56 E18.74636
G1 X157.828 Y106.791 E18.75419
G1 X157.711 Y107.305 E18.77172
G1 X157.05 Y109.911 E18.86114
G1 X156.495 Y112.386 E18.94551
G1 X156.009 Y114.901 E19.0307
G1 X155.598 Y117.393 E19.11471
G1 X155.259 Y119.88 E19.19819
G1 X154.983 Y122.453 E19.28426
G1 X154.786 Y124.946 E19.36744
G1 X154.659 Y127.481 E19.45186
G1 X154.598 Y130.652 E19.55734
G1 X154.592 Y132.984 E19.63491
G1 X154.581 Y133.675 E19.65789
G1 X154.526 Y134.577 E19.68795
G1 X154.393 Y135.47 E19.71798
G1 X154.18 Y136.348 E19.74803
G1 X153.891 Y137.203 E19.77805
G1 X153.527 Y138.03 E19.8081
G1 X153.092 Y138.821 E19.83812
G1 X152.588 Y139.571 E19.86818
G1 X152.02 Y140.273 E19.89821
G1 X151.392 Y140.922 E19.92825
G1 X150.71 Y141.513 E19.95826
G1 X149.977 Y142.041 E19.98831
G1 X149.201 Y142.503 E20.01835
G1 X148.387 Y142.894 E20.04838
G1 X147.541 Y143.211 E20.07843
G1 X146.671 Y143.453 E20.10847
G1 X145.783 Y143.616 E20.13849
G1 X144.594 Y143.711 E20.17817
G1 X143.586 Y143.732 E20.2117
G1 X143.374 Y143.734 E20.21875
G1 X90.51 Y143.733 E21.97702
G1 X89.825 Y143.723 E21.9998
G1 X88.924 Y143.67 E22.02982
G1 X88.03 Y143.537 E22.05988
G1 X87.152 Y143.326 E22.08992
G1 X86.296 Y143.038 E22.11996
G1 X85.469 Y142.675 E22.14999
G1 X84.677 Y142.241 E22.18003
G1 X83.927 Y141.738 E22.21007
G1 X83.224 Y141.171 E22.24011
G1 X82.574 Y140.544 E22.27015
G1 X81.982 Y139.862 E22.30018
G1 X81.453 Y139.13 E22.33022
G1 X80.99 Y138.355 E22.36025
G1 X80.598 Y137.541 E22.3903
G1 X80.28 Y136.696 E22.42033
G1 X80.037 Y135.826 E22.45037
G1 X79.873 Y134.938 E22.4804
G1 X79.777 Y133.751 E22.52001
G1 X79.762 Y133.077 E22.54244
G1 X79.76 Y132.716 E22.55444
G1 X79.778 Y131.434 E22.59709
G1 X79.795 Y130.793 E22.61841
G1 X79.78 Y127.559 E22.72598
G1 X79.761 Y126.709 E22.75426
G1 X79.762 Y126.259 E22.76922
G1 X79.765 Y126.125 E22.77368
G1 X79.811 Y125.357 E22.79927
G1 X79.96 Y123.844 E22.84984
G1 X79.986 Y123.612 E22.8576
G1 X80.194 Y121.066 E22.94256
G1 X80.328 Y118.578 E23.02544
G1 X80.401 Y115.084 E23.14167
G1 X80.407 Y112.491 E23.22792
G1 X80.419 Y111.776 E23.2517
G1 X80.475 Y110.874 E23.28176
G1 X80.594 Y110.062 E23.30905
G1 X80.839 Y108.761 E23.35309
G1 X80.91 Y108.41 E23.365
G1 X81.349 Y105.886 E23.45021
G1 X81.706 Y103.412 E23.53334
G1 X82.003 Y100.846 E23.61926
G1 X82.162 Y99.223 E23.6735
G1 X82.29 Y98.329 E23.70354
G1 X82.497 Y97.45 E23.73357
G1 X82.781 Y96.593 E23.7636
G1 X83.14 Y95.764 E23.79365
G1 X83.571 Y94.97 E23.8237
G1 X84.24 Y93.992 E23.86311
G1 X84.369 Y93.825 E23.87012
G1 X84.952 Y93.135 E23.90017
G1 X85.594 Y92.5 E23.9302
G1 F2700 E18.9302
;MESH:Wallet_All_Parts.stl
G0 F6000 X89.957 Y119.769
G0 X105.042 Y125.698
G0 X105.042 Y126.783
G0 X105.091 Y128.497
G0 X115.15 Y128.51
G0 X115.15 Y131.386
G0 X105.176 Y131.396
G0 X105.222 Y132.934
;TYPE:WALL-INNER
G1 F2700 E23.9302
G1 F1200 X105.222 Y131.558 E23.97597
G1 X115.322 Y131.558 E24.3119
G1 X115.322 Y128.338 E24.41899
G1 X105.222 Y128.338 E24.75492
G1 X105.222 Y126.963 E24.80065
G1 X143.793 Y126.963 E26.08353
G1 X143.8 Y129.598 E26.17117
G1 X143.793 Y132.934 E26.28213
G1 X105.222 Y132.934 E27.565
G0 F6000 X104.822 Y132.926
;TYPE:WALL-OUTER
G1 F1200 X104.822 Y131.158 E27.62381
G1 X114.922 Y131.158 E27.95974
G1 X114.922 Y128.738 E28.04022
G1 X104.822 Y128.738 E28.37615
G1 X104.822 Y126.971 E28.43492
G1 X90.152 Y126.971 E28.92285
G1 X90.151 Y126.563 E28.93642
G1 X144.192 Y126.563 E30.73383
G1 X144.2 Y129.599 E30.83481
G1 X144.192 Y133.334 E30.95903
G1 X90.152 Y133.334 E32.75641
G1 X90.151 Y132.926 E32.76998
G1 X104.822 Y132.926 E33.25794
G0 F6000 X105.612 Y132.544
;TYPE:SKIN
G1 F1200 X105.612 Y131.948 E33.27777
G1 X115.712 Y131.948 E33.61369
G1 X115.712 Y127.948 E33.74673
G1 X105.612 Y127.948 E34.08266
G1 X105.612 Y127.353 E34.10245
G1 X143.404 Y127.353 E35.35942
G1 X143.41 Y129.774 E35.43994
G1 X143.403 Y132.544 E35.53207
G1 X105.612 Y132.544 E36.78901
G0 F6000 X106.085 Y132.107
G1 F1200 X106.361 Y132.383 E36.80199
G0 F6000 X106.651 Y132.107
G1 F1200 X106.927 Y132.383 E36.81497
G0 F6000 X107.217 Y132.107
G1 F1200 X107.492 Y132.383 E36.82793
G0 F6000 X107.782 Y132.107
