;FLAVOR:Marlin
;TIME:5699
;Filament used: 5.11059m
;Layer height: 0.3
;MINX:79.231
;MINY:89.093
;MINZ:0.2
;MAXX:158.574
;MAXY:144.375
;MAXZ:92
;Generated with Cura_SteamEngine 4.13.0
M140 S50
M105
M190 S50
M104 S215
M105
M109 S215
M82 ;absolute extrusion mode
; Ender 3 Custom Start G-code
G92 E0 ; Reset Extruder
G28 ; Home all axes
G1 Z2.0 F3000 ; Move Z Axis up little to prevent scratching of Heat Bed
G1 X0.1 Y20 Z0.3 F5000.0 ; Move to start position
G1 X0.1 Y200.0 Z0.3 F1500.0 E15 ; Draw the first line
G1 X0.4 Y200.0 Z0.3 F5000.0 ; Move to side a little
G1 X0.4 Y20 Z0.3 F1500.0 E30 ; Draw the second line
G92 E0 ; Reset Extruder
G1 Z2.0 F3000 ; Move Z Axis up little to prevent scratching of Heat Bed
G1 X5 Y20 Z0.3 F5000.0 ; Move over to prevent blob squish
G92 E0
G92 E0
G1 F2700 E-5
;LAYER_COUNT:307
;LAYER:0
M107
G0 F6000 X85.289 Y92.087 Z0.2
;TYPE:SKIRT
G1 F2700 E0
G1 F1200 X86.01 Y91.487 E0.0312
G1 X86.779 Y90.95 E0.06239
G1 X87.591 Y90.481 E0.09358
G1 X88.44 Y90.083 E0.12477
G1 X89.625 Y89.665 E0.16656
G1 X89.867 Y89.595 E0.17494
G1 X91.219 Y89.295 E0.221
G1 X91.525 Y89.247 E0.2313
G1 X92.457 Y89.141 E0.2625
G1 X93.034 Y89.116 E0.28171
G1 X94.42 Y89.093 E0.32782
G1 X96.889 Y89.095 E0.40994
G1 X103.893 Y89.093 E0.64289
G1 X104.896 Y89.103 E0.67625
G1 X106.067 Y89.177 E0.71528
G1 X106.522 Y89.233 E0.73052
G1 X108.833 Y89.556 E0.80814
G1 X111.325 Y89.833 E0.89153
G1 X113.84 Y90.041 E0.97547
G1 X115.307 Y90.119 E1.02433
G1 X116.056 Y90.168 E1.04929
G1 X116.566 Y90.214 E1.06632
G1 X116.833 Y90.244 E1.07526
G1 X117.124 Y90.28 E1.08501
G1 X119.492 Y90.61 E1.16453
G1 X121.984 Y90.887 E1.24793
G1 X124.507 Y91.094 E1.33213
G1 X126.122 Y91.181 E1.38592
G1 X126.741 Y91.223 E1.40655
G1 X127.252 Y91.27 E1.42362
G1 X127.75 Y91.33 E1.44031
G1 X130.118 Y91.66 E1.51983
G1 X132.602 Y91.936 E1.60295
G1 X135.134 Y92.145 E1.68745
G1 X136.913 Y92.242 E1.74671
G1 X137.446 Y92.279 E1.76448
G1 X138.067 Y92.34 E1.78524
G1 X138.429 Y92.387 E1.79738
G1 X140.757 Y92.713 E1.87556
G1 X143.226 Y92.986 E1.95818
G1 X145.768 Y93.196 E2.04302
G1 X147.467 Y93.288 E2.09961
G1 X148.053 Y93.328 E2.11914
G1 X148.985 Y93.433 E2.15034
G1 X149.904 Y93.617 E2.18151
G1 X150.805 Y93.879 E2.21272
G1 X151.68 Y94.217 E2.24392
G1 X152.523 Y94.628 E2.27511
G1 X153.093 Y94.958 E2.29702
G1 X153.344 Y95.114 E2.30685
G1 X154.118 Y95.643 E2.33803
G1 X154.845 Y96.236 E2.36923
G1 X155.519 Y96.888 E2.40042
G1 X156.135 Y97.595 E2.43161
G1 X156.688 Y98.353 E2.46282
G1 X157.175 Y99.155 E2.49403
G1 X157.591 Y99.995 E2.5252
G1 X157.935 Y100.867 E2.55638
G1 X158.203 Y101.766 E2.58758
G1 X158.382 Y102.616 E2.61647
G1 X158.419 Y102.834 E2.62383
G1 X158.536 Y103.765 E2.65504
G1 X158.574 Y104.702 E2.68623
G1 X158.532 Y105.639 E2.71742
G1 X158.409 Y106.571 E2.74869
G1 X158.367 Y106.811 E2.75679
G1 X158.167 Y107.723 E2.78785
G1 X157.775 Y109.208 E2.83893
G1 X157.192 Y111.699 E2.92402
G1 X156.692 Y114.146 E3.00709
G1 X156.257 Y116.639 E3.09126
G1 X155.897 Y119.108 E3.17425
G1 X155.603 Y121.612 E3.2581
G1 X155.382 Y124.117 E3.34174
G1 X155.23 Y126.646 E3.42601
G1 X155.149 Y129.187 E3.51057
G1 X155.136 Y130.446 E3.55244
G1 X155.127 Y132.873 E3.63317
G1 X155.115 Y133.549 E3.65565
G1 X155.059 Y134.485 E3.68684
G1 X154.923 Y135.413 E3.71804
G1 X154.708 Y136.326 E3.74923
G1 X154.416 Y137.218 E3.78045
G1 X154.05 Y138.081 E3.81163
G1 X153.611 Y138.91 E3.84283
G1 X153.103 Y139.698 E3.87401
G1 X152.53 Y140.441 E3.90522
G1 X151.896 Y141.132 E3.93641
G1 X151.205 Y141.766 E3.9676
G1 X150.463 Y142.339 E3.99878
G1 X149.674 Y142.847 E4.02999
G1 X148.845 Y143.286 E4.06119
G1 X147.982 Y143.653 E4.09239
G1 X147.091 Y143.944 E4.12356
G1 X146.178 Y144.159 E4.15476
G1 X145.25 Y144.296 E4.18596
G1 X144.343 Y144.352 E4.21618
G1 X143.319 Y144.373 E4.25025
G1 X143.093 Y144.375 E4.25776
G1 X90.769 Y144.374 E5.99807
G1 X90.084 Y144.364 E6.02085
G1 X89.148 Y144.31 E6.05204
G1 X88.22 Y144.177 E6.08322
G1 X87.306 Y143.965 E6.11442
G1 X86.414 Y143.676 E6.14561
G1 X85.549 Y143.312 E6.17682
G1 X84.719 Y142.876 E6.20801
G1 X83.929 Y142.371 E6.23919
G1 X83.185 Y141.8 E6.27039
G1 X82.492 Y141.168 E6.30158
G1 X81.855 Y140.479 E6.33279
G1 X81.28 Y139.739 E6.36396
G1 X80.769 Y138.952 E6.39517
G1 X80.328 Y138.125 E6.42634
G1 X79.959 Y137.262 E6.45756
G1 X79.664 Y136.372 E6.48874
G1 X79.446 Y135.46 E6.51993
G1 X79.307 Y134.532 E6.55114
G1 X79.248 Y133.613 E6.58177
G1 X79.233 Y132.948 E6.60389
G1 X79.231 Y132.55 E6.61713
G1 X79.25 Y131.242 E6.66064
G1 X79.266 Y130.609 E6.6817
G1 X79.249 Y127.404 E6.7883
G1 X79.233 Y126.662 E6.81299
G1 X79.234 Y126.109 E6.83138
G1 X79.239 Y125.932 E6.83727
G1 X79.287 Y125.172 E6.8626
G1 X79.42 Y123.824 E6.90765
G1 X79.438 Y123.662 E6.91307
G1 X79.647 Y121.175 E6.99608
G1 X79.785 Y118.702 E7.07846
G1 X79.861 Y114.967 E7.20271
G1 X79.873 Y112.511 E7.2844
G1 X79.884 Y111.848 E7.30645
G1 X79.907 Y111.291 E7.325
G1 X80.075 Y109.959 E7.36965
G1 X80.289 Y108.831 E7.40784
G1 X80.74 Y106.299 E7.49338
G1 X81.11 Y103.813 E7.57697
G1 X81.409 Y101.336 E7.65996
G1 X81.474 Y100.646 E7.68301
G1 X81.614 Y99.275 E7.72884
G1 X81.749 Y98.346 E7.76007
G1 X81.962 Y97.433 E7.79125
G1 X82.253 Y96.541 E7.82246
G1 X82.618 Y95.678 E7.85362
G1 X83.056 Y94.848 E7.88483
G1 X83.563 Y94.059 E7.91603
G1 X83.889 Y93.62 E7.93421
G1 X84.014 Y93.46 E7.94097
G1 X84.622 Y92.746 E7.97216
G1 X85.289 Y92.087 E8.00335
G0 F6000 X85.583 Y92.36
G1 F1200 X86.293 Y91.774 E8.03396
G1 X87.051 Y91.251 E8.06459
G1 X87.851 Y90.797 E8.09519
G1 X88.688 Y90.413 E8.12582
G1 X89.737 Y90.049 E8.16275
G1 X89.979 Y89.979 E8.17113
G1 X91.281 Y89.69 E8.21549
G1 X91.587 Y89.642 E8.22579
G1 X92.502 Y89.539 E8.25641
G1 X93.042 Y89.516 E8.27439
G1 X94.42 Y89.493 E8.32023
G1 X96.889 Y89.495 E8.40235
G1 X103.893 Y89.493 E8.6353
G1 X104.892 Y89.503 E8.66853
G1 X106.021 Y89.574 E8.70615
G1 X106.467 Y89.629 E8.7211
G1 X108.805 Y89.956 E8.79962
G1 X111.284 Y90.231 E8.88258
G1 X113.819 Y90.441 E8.96718
G1 X115.281 Y90.519 E9.01588
G1 X116.03 Y90.568 E9.04084
G1 X116.522 Y90.611 E9.05727
G1 X116.789 Y90.641 E9.0662
G1 X117.069 Y90.677 E9.07559
G1 X119.429 Y91.006 E9.15485
G1 X121.943 Y91.285 E9.23898
G1 X124.453 Y91.492 E9.32274
G1 X126.095 Y91.58 E9.37743
G1 X126.714 Y91.622 E9.39807
G1 X127.206 Y91.667 E9.4145
G1 X127.441 Y91.694 E9.42237
G1 X127.695 Y91.727 E9.43089
G1 X130.055 Y92.056 E9.51014
G1 X132.561 Y92.334 E9.594
G1 X135.079 Y92.542 E9.67804
G1 X136.885 Y92.641 E9.73819
G1 X137.418 Y92.678 E9.75597
G1 X138.016 Y92.737 E9.77595
G1 X138.373 Y92.783 E9.78792
G1 X140.69 Y93.107 E9.86574
G1 X143.221 Y93.387 E9.95043
G1 X145.749 Y93.596 E10.0348
G1 X147.61 Y93.698 E10.09679
G1 X148.025 Y93.727 E10.11063
G1 X148.94 Y93.831 E10.14126
G1 X149.842 Y94.014 E10.17187
G1 X150.725 Y94.274 E10.20248
G1 X151.582 Y94.611 E10.23311
G1 X152.407 Y95.02 E10.26374
G1 X152.881 Y95.298 E10.28202
G1 X153.132 Y95.454 E10.29184
G1 X153.892 Y95.974 E10.32247
G1 X154.605 Y96.557 E10.35311
G1 X155.263 Y97.2 E10.38371
G1 X155.864 Y97.898 E10.41434
G1 X156.402 Y98.645 E10.44496
G1 X156.873 Y99.436 E10.47558
G1 X157.273 Y100.265 E10.50619
G1 X157.6 Y101.126 E10.53683
G1 X157.851 Y102.012 E10.56745
G1 X157.988 Y102.683 E10.59023
G1 X158.025 Y102.901 E10.59759
G1 X158.139 Y103.815 E10.62822
G1 X158.174 Y104.735 E10.65884
G1 X158.129 Y105.654 E10.68945
G1 X158.015 Y106.502 E10.7179
G1 X157.973 Y106.742 E10.72601
G1 X157.781 Y107.621 E10.75593
G1 X157.385 Y109.12 E10.8075
G1 X156.805 Y111.599 E10.89218
G1 X156.293 Y114.101 E10.97712
G1 X155.868 Y116.543 E11.05956
G1 X155.497 Y119.08 E11.14484
G1 X155.206 Y121.566 E11.22809
G1 X154.983 Y124.091 E11.3124
G1 X154.831 Y126.609 E11.3963
G1 X154.748 Y129.216 E11.48305
G1 X154.736 Y130.445 E11.52393
G1 X154.729 Y132.711 E11.5993
G1 X154.715 Y133.542 E11.62694
G1 X154.659 Y134.461 E11.65757
G1 X154.523 Y135.372 E11.6882
G1 X154.309 Y136.267 E11.71881
G1 X154.018 Y137.14 E11.74941
G1 X153.652 Y137.985 E11.78004
G1 X153.214 Y138.795 E11.81067
G1 X152.708 Y139.564 E11.84129
G1 X152.136 Y140.286 E11.87192
G1 X151.505 Y140.956 E11.90254
G1 X150.817 Y141.568 E11.93316
G1 X150.079 Y142.118 E11.96377
G1 X149.296 Y142.603 E11.99441
G1 X148.474 Y143.017 E12.02502
G1 X147.619 Y143.359 E12.05565
G1 X146.738 Y143.625 E12.08626
G1 X145.837 Y143.814 E12.11688
G1 X144.923 Y143.923 E12.14749
G1 X144.334 Y143.952 E12.16711
G1 X143.31 Y143.973 E12.20117
G1 X143.093 Y143.975 E12.20839
G1 X90.775 Y143.974 E13.94849
G1 X90.09 Y143.964 E13.97128
G1 X89.171 Y143.91 E14.0019
G1 X88.26 Y143.778 E14.03251
G1 X87.364 Y143.566 E14.06314
G1 X86.49 Y143.278 E14.09374
G1 X85.644 Y142.914 E14.12438
G1 X84.833 Y142.479 E14.15499
G1 X84.062 Y141.975 E14.18562
G1 X83.338 Y141.406 E14.21625
G1 X82.667 Y140.776 E14.24686
G1 X82.052 Y140.091 E14.27748
G1 X81.499 Y139.355 E14.3081
G1 X81.013 Y138.573 E14.33872
G1 X80.596 Y137.752 E14.36935
G1 X80.251 Y136.899 E14.39995
G1 X79.982 Y136.018 E14.43059
G1 X79.791 Y135.118 E14.46119
G1 X79.678 Y134.204 E14.49182
G1 X79.648 Y133.604 E14.5118
G1 X79.633 Y132.939 E14.53393
G1 X79.631 Y132.556 E14.54667
G1 X79.649 Y131.252 E14.59004
G1 X79.666 Y130.584 E14.61227
G1 X79.649 Y127.393 E14.7184
G1 X79.633 Y126.653 E14.74302
G1 X79.634 Y126.121 E14.76071
G1 X79.639 Y125.944 E14.7666
G1 X79.685 Y125.211 E14.79103
G1 X79.802 Y124.015 E14.831
G1 X79.832 Y123.74 E14.8402
G1 X80.046 Y121.198 E14.92505
G1 X80.185 Y118.704 E15.00813
G1 X80.261 Y114.977 E15.13211
G1 X80.272 Y112.517 E15.21393
G1 X80.283 Y111.854 E15.23599
G1 X80.306 Y111.317 E15.25386
G1 X80.468 Y110.033 E15.29691
G1 X80.684 Y108.897 E15.33537
G1 X81.135 Y106.362 E15.42101
G1 X81.505 Y103.878 E15.50454
G1 X81.81 Y101.345 E15.58939
G1 X81.872 Y100.686 E15.61141
G1 X82.012 Y99.315 E15.65725
G1 X82.145 Y98.404 E15.68787
G1 X82.357 Y97.508 E15.71849
G1 X82.646 Y96.634 E15.74911
G1 X83.009 Y95.788 E15.77973
G1 X83.444 Y94.977 E15.81034
G1 X84.204 Y93.866 E15.85511
G1 X84.329 Y93.706 E15.86186
G1 X84.927 Y93.006 E15.89248
G1 X85.583 Y92.36 E15.9231
G0 F6000 X85.876 Y92.634
G1 F1200 X86.575 Y92.062 E15.95314
G1 X87.322 Y91.554 E15.98319
G1 X88.11 Y91.114 E16.01321
G1 X88.935 Y90.745 E16.04327
G1 X89.848 Y90.434 E16.07535
G1 X90.09 Y90.364 E16.08373
G1 X91.343 Y90.085 E16.12642
G1 X91.649 Y90.037 E16.13672
G1 X92.547 Y89.937 E16.16678
G1 X93.049 Y89.916 E16.18349
G1 X94.419 Y89.893 E16.22906
G1 X96.888 Y89.895 E16.31118
G1 X103.893 Y89.893 E16.54417
G1 X104.888 Y89.903 E16.57726
G1 X105.974 Y89.972 E16.61346
G1 X106.411 Y90.025 E16.6281
G1 X108.737 Y90.35 E16.70621
G1 X111.278 Y90.633 E16.79125
G1 X113.765 Y90.838 E16.87425
G1 X115.255 Y90.918 E16.92388
G1 X116.004 Y90.967 E16.94884
G1 X116.477 Y91.009 E16.96463
G1 X116.744 Y91.039 E16.97357
G1 X117.014 Y91.073 E16.98262
G1 X119.366 Y91.401 E17.06161
G1 X121.902 Y91.682 E17.14647
G1 X124.433 Y91.891 E17.23094
G1 X126.067 Y91.979 E17.28536
G1 X126.686 Y92.021 E17.306
G1 X127.16 Y92.065 E17.32183
G1 X127.64 Y92.123 E17.33791
G1 X129.993 Y92.451 E17.41693
G1 X132.556 Y92.736 E17.5027
G1 X135.06 Y92.943 E17.58627
G1 X136.857 Y93.04 E17.64613
G1 X137.39 Y93.077 E17.6639
G1 X137.966 Y93.134 E17.68315
G1 X138.318 Y93.179 E17.69495
G1 X140.662 Y93.507 E17.77367
G1 X143.18 Y93.785 E17.85793
G1 X145.695 Y93.993 E17.94186
G1 X147.582 Y94.097 E18.00472
G1 X147.997 Y94.126 E18.01856
G1 X148.894 Y94.229 E18.04859
G1 X149.779 Y94.41 E18.07863
G1 X150.644 Y94.67 E18.10867
G1 X151.483 Y95.004 E18.13871
G1 X152.67 Y95.638 E18.18347
G1 X152.921 Y95.794 E18.1933
G1 X153.666 Y96.304 E18.22333
G1 X154.364 Y96.878 E18.25338
G1 X155.007 Y97.512 E18.28342
G1 X155.592 Y98.2 E18.31345
G1 X156.114 Y98.937 E18.34349
G1 X156.569 Y99.717 E18.37353
G1 X156.953 Y100.535 E18.40358
G1 X157.263 Y101.383 E18.43361
G1 X157.496 Y102.255 E18.46363
G1 X157.593 Y102.75 E18.48041
G1 X157.63 Y102.968 E18.48776
G1 X157.742 Y103.864 E18.5178
G1 X157.774 Y104.767 E18.54785
G1 X157.725 Y105.669 E18.57789
G1 X157.621 Y106.433 E18.60354
G1 X157.579 Y106.673 E18.61164
G1 X157.394 Y107.519 E18.64045
G1 X156.995 Y109.032 E18.69249
G1 X156.417 Y111.5 E18.7768
G1 X155.901 Y114.024 E18.86248
G1 X155.472 Y116.488 E18.94567
G1 X155.104 Y119.008 E19.03037
G1 X154.805 Y121.556 E19.1157
G1 X154.586 Y124.032 E19.19837
G1 X154.431 Y126.607 E19.28417
G1 X154.349 Y129.2 E19.37046
G1 X154.336 Y130.444 E19.41184
G1 X154.329 Y132.71 E19.48721
G1 X154.315 Y133.535 E19.51465
G1 X154.259 Y134.436 E19.54468
G1 X154.124 Y135.329 E19.57471
G1 X153.91 Y136.207 E19.60477
G1 X153.619 Y137.062 E19.63481
G1 X153.254 Y137.888 E19.66485
G1 X152.817 Y138.678 E19.69487
G1 X152.312 Y139.427 E19.72492
G1 X151.743 Y140.128 E19.75495
G1 X151.114 Y140.776 E19.78498
G1 X150.43 Y141.366 E19.81503
G1 X149.697 Y141.893 E19.84506
G1 X148.919 Y142.353 E19.87512
G1 X148.105 Y142.742 E19.90512
G1 X147.259 Y143.058 E19.93516
G1 X146.388 Y143.298 E19.96521
G1 X145.499 Y143.46 E19.99526
G1 X144.326 Y143.552 E20.0344
G1 X143.302 Y143.573 E20.06846
G1 X143.093 Y143.575 E20.07542
G1 X90.781 Y143.574 E21.81532
G1 X90.096 Y143.564 E21.83811
G1 X89.195 Y143.511 E21.86812
G1 X88.301 Y143.378 E21.89819
G1 X87.423 Y143.167 E21.92822
G1 X86.567 Y142.879 E21.95826
G1 X85.74 Y142.516 E21.9883
G1 X84.948 Y142.082 E22.01834
G1 X84.198 Y141.579 E22.04837
G1 X83.495 Y141.012 E22.07841
G1 X82.845 Y140.385 E22.10845
G1 X82.253 Y139.703 E22.13849
G1 X81.724 Y138.971 E22.16852
G1 X81.261 Y138.196 E22.19855
G1 X80.869 Y137.382 E22.2286
G1 X80.551 Y136.537 E22.25863
G1 X80.308 Y135.667 E22.28867
G1 X80.144 Y134.779 E22.31871
G1 X80.048 Y133.595 E22.35822
G1 X80.033 Y132.93 E22.38034
G1 X80.031 Y132.561 E22.39261
G1 X80.049 Y131.262 E22.43582
G1 X80.066 Y130.592 E22.45811
G1 X80.05 Y127.442 E22.56289
G1 X80.032 Y126.645 E22.5894
G1 X80.034 Y126.132 E22.60646
G1 X80.039 Y125.955 E22.61235
G1 X80.083 Y125.25 E22.63585
G1 X80.215 Y123.913 E22.68053
G1 X80.234 Y123.745 E22.68615
G1 X80.446 Y121.217 E22.77053
G1 X80.584 Y118.733 E22.85328
G1 X80.661 Y114.988 E22.97786
G1 X80.672 Y112.524 E23.05982
G1 X80.683 Y111.861 E23.08187
G1 X80.705 Y111.342 E23.09915
G1 X80.861 Y110.108 E23.14052
G1 X81.081 Y108.951 E23.17969
G1 X81.524 Y106.46 E23.26384
G1 X81.904 Y103.914 E23.34946
G1 X82.207 Y101.394 E23.43388
G1 X82.27 Y100.727 E23.45616
G1 X82.41 Y99.356 E23.502
G1 X82.541 Y98.462 E23.53205
G1 X82.751 Y97.584 E23.56208
G1 X83.038 Y96.728 E23.5921
G1 X83.399 Y95.9 E23.62215
G1 X83.833 Y95.108 E23.65219
G1 X84.519 Y94.112 E23.69241
G1 X84.644 Y93.952 E23.69916
G1 X85.231 Y93.266 E23.72919
G1 X85.876 Y92.634 E23.75923
G1 F2700 E18.75923
;MESH:Wallet_All_Parts.stl
G0 F6000 X89.571 Y127.728
G0 X105.164 Y130.16
G0 X105.164 Y131.239
G0 X105.35 Y132.775
;TYPE:WALL-INNER
G1 F2700 E23.75923
G1 F1200 X105.35 Y131.425 E23.80413
G1 X115.35 Y131.425 E24.13673
G1 X115.35 Y128.225 E24.24316
G1 X105.35 Y128.225 E24.57576
G1 X105.35 Y126.875 E24.62066
G1 X143.528 Y126.875 E25.89047
G1 X143.537 Y129.388 E25.97405
G1 X143.535 Y129.825 E25.98859
G1 X143.536 Y130.256 E26.00292
G1 X143.529 Y132.775 E26.08671
G1 X105.35 Y132.775 E27.35654
G0 F6000 X104.95 Y132.775
;TYPE:WALL-OUTER
G1 F1200 X104.95 Y131.025 E27.41475
G1 X114.95 Y131.025 E27.74735
G1 X114.95 Y128.625 E27.82718
G1 X104.95 Y128.625 E28.15978
G1 X104.95 Y126.875 E28.21798
G1 X90.423 Y126.875 E28.70115
G1 X90.422 Y126.475 E28.71446
G1 X143.927 Y126.475 E30.49404
G1 X143.937 Y129.39 E30.59099
G1 X143.935 Y129.825 E30.60546
G1 X143.936 Y130.257 E30.61983
G1 X143.928 Y133.175 E30.71688
G1 X90.423 Y133.175 E32.49647
G1 X90.422 Y132.775 E32.50977
G1 X104.95 Y132.775 E32.99297
G0 F6000 X105.74 Y132.385
;TYPE:SKIN
G1 F1200 X105.74 Y131.815 E33.01193
G1 X115.74 Y131.815 E33.34453
G1 X115.74 Y127.835 E33.47691
G1 X105.74 Y127.835 E33.80951
G1 X105.74 Y127.265 E33.82847
G1 X143.14 Y127.265 E35.0724
G1 X143.147 Y129.386 E35.14294
G1 X143.14 Y132.385 E35.24269
G1 X105.74 Y132.385 E36.48662
G0 F6000 X105.952 Y131.974
G1 F1200 X106.202 Y132.224 E36.49838
G0 F6000 X106.518 Y131.974
G1 F1200 X106.768 Y132.224 E36.51014
G0 F6000 X107.084 Y131.974
G1 F1200 X107.333 Y132.224 E36.52187
G0 F6000 X107.649 Y131.974
G1 F1200 X107.899 Y132.224 E36.53363
G0 F6000 X108.215 Y131.974
G1 F1200 X108.465 Y132.224 E36.54539
G0 F6000 X108.781 Y131.974
