;FLAVOR:Marlin
;TIME:18820
;Filament used: 12.1693m
;Layer height: 0.2
;MINX:48.253
;MINY:70.098
;MINZ:0.2
;MAXX:189.248
;MAXY:164.902
;MAXZ:77
;Generated with Cura_SteamEngine 4.13.0
M140 S50
M105
M190 S50
M104 S215
M105
M109 S215
M82 ;absolute extrusion mode
; Ender 3 Custom Start G-code
G92 E0 ; Reset Extruder
G28 ; Home all axes
G1 Z2.0 F3000 ; Move Z Axis up little to prevent scratching of Heat Bed
G1 X0.1 Y20 Z0.3 F5000.0 ; Move to start position
G1 X0.1 Y200.0 Z0.3 F1500.0 E15 ; Draw the first line
G1 X0.4 Y200.0 Z0.3 F5000.0 ; Move to side a little
G1 X0.4 Y20 Z0.3 F1500.0 E30 ; Draw the second line
G92 E0 ; Reset Extruder
G1 Z2.0 F3000 ; Move Z Axis up little to prevent scratching of Heat Bed
G1 X5 Y20 Z0.3 F5000.0 ; Move over to prevent blob squish
G92 E0
G92 E0
G1 F2700 E-5
;LAYER_COUNT:386
;LAYER:0
M107
G0 F6000 X59.019 Y76.567 Z0.2
;TYPE:SKIRT
G1 F2700 E0
G1 F1200 X59.757 Y76.011 E0.03073
G1 X59.934 Y75.889 E0.03788
G1 X60.182 Y75.723 E0.04781
G1 X60.51 Y75.51 E0.06082
G1 X62.854 Y74.018 E0.15323
G1 X63.569 Y73.577 E0.18117
G1 X64.388 Y73.12 E0.21237
G1 X64.944 Y72.859 E0.23279
G1 X65.006 Y72.832 E0.23504
G1 X65.569 Y72.605 E0.25523
G1 X66.258 Y72.35 E0.27967
G1 X68.867 Y71.416 E0.37184
G1 X69.574 Y71.175 E0.39668
G1 X70.474 Y70.911 E0.42788
G1 X71.701 Y70.679 E0.46941
G1 X72.656 Y70.556 E0.50144
G1 X75.437 Y70.235 E0.59455
G1 X76.148 Y70.164 E0.61831
G1 X77.07 Y70.111 E0.64903
G1 X78.015 Y70.098 E0.68046
G1 X159.541 Y70.098 E3.39203
G1 X160.391 Y70.109 E3.4203
G1 X161.322 Y70.162 E3.45132
G1 X162.075 Y70.237 E3.47649
G1 X164.976 Y70.571 E3.57361
G1 X165.767 Y70.672 E3.60013
G1 X166.692 Y70.832 E3.63136
G1 X167.901 Y71.168 E3.67309
G1 X168.825 Y71.484 E3.70557
G1 X171.33 Y72.382 E3.79408
G1 X172.011 Y72.637 E3.81827
G1 X172.875 Y73.003 E3.84947
G1 X173.612 Y73.387 E3.87711
G1 X174.02 Y73.629 E3.89289
G1 X174.63 Y74.008 E3.91678
G1 X176.808 Y75.394 E4.00264
G1 X177.518 Y75.859 E4.03087
G1 X178.28 Y76.406 E4.06207
G1 X178.909 Y76.939 E4.08949
G1 X179.061 Y77.078 E4.09634
G1 X179.331 Y77.334 E4.10872
G1 X179.647 Y77.644 E4.12344
G1 X181.694 Y79.691 E4.21972
G1 X182.163 Y80.173 E4.24209
G1 X182.788 Y80.872 E4.27328
G1 X183.359 Y81.635 E4.30498
G1 X183.595 Y81.985 E4.31902
G1 X183.875 Y82.414 E4.33606
G1 X185.322 Y84.69 E4.42576
G1 X185.759 Y85.397 E4.4534
G1 X186.218 Y86.215 E4.4846
G1 X186.477 Y86.764 E4.50479
G1 X186.733 Y87.391 E4.52732
G1 X187 Y88.111 E4.55286
G1 X187.927 Y90.703 E4.64441
G1 X188.162 Y91.386 E4.66844
G1 X188.429 Y92.285 E4.69963
G1 X188.667 Y93.54 E4.74212
G1 X188.79 Y94.489 E4.77394
G1 X189.106 Y97.246 E4.86624
G1 X189.181 Y97.987 E4.89101
G1 X189.236 Y98.93 E4.92243
G1 X189.248 Y99.828 E4.9523
G1 X189.247 Y135.355 E6.13393
G1 X189.237 Y136.042 E6.15679
G1 X189.184 Y136.972 E6.18777
G1 X189.087 Y137.934 E6.21993
G1 X188.767 Y140.704 E6.31267
G1 X188.678 Y141.402 E6.33607
G1 X188.519 Y142.327 E6.36729
G1 X188.177 Y143.563 E6.40995
G1 X187.86 Y144.487 E6.44244
G1 X186.963 Y146.988 E6.53081
G1 X186.709 Y147.667 E6.55492
G1 X186.343 Y148.531 E6.58613
G1 X185.929 Y149.319 E6.61573
G1 X185.718 Y149.673 E6.62944
G1 X185.343 Y150.276 E6.65306
G1 X183.9 Y152.542 E6.74241
G1 X183.481 Y153.181 E6.76783
G1 X182.934 Y153.942 E6.799
G1 X182.356 Y154.619 E6.8286
G1 X182.016 Y154.982 E6.84515
G1 X181.717 Y155.286 E6.85933
G1 X179.648 Y157.355 E6.95665
G1 X179.165 Y157.824 E6.97904
G1 X178.465 Y158.448 E7.01023
G1 X177.766 Y158.974 E7.03933
G1 X177.613 Y159.08 E7.04552
G1 X177.33 Y159.27 E7.05685
G1 X176.937 Y159.524 E7.07242
G1 X174.548 Y161.043 E7.16658
G1 X173.921 Y161.429 E7.19107
G1 X173.102 Y161.886 E7.22226
G1 X172.239 Y162.275 E7.25375
G1 X171.919 Y162.4 E7.26517
G1 X171.247 Y162.649 E7.28901
G1 X168.634 Y163.583 E7.3813
G1 X167.953 Y163.817 E7.40525
G1 X167.053 Y164.084 E7.43648
G1 X165.811 Y164.32 E7.47852
G1 X164.914 Y164.437 E7.50861
G1 X162.074 Y164.763 E7.60369
G1 X161.358 Y164.835 E7.62762
G1 X160.428 Y164.889 E7.65861
G1 X159.484 Y164.902 E7.69001
G1 X77.799 Y164.901 E10.40686
G1 X77.116 Y164.891 E10.42958
G1 X76.188 Y164.838 E10.4605
G1 X75.374 Y164.757 E10.4877
G1 X72.424 Y164.417 E10.58647
G1 X71.734 Y164.328 E10.60961
G1 X70.81 Y164.168 E10.6408
G1 X69.591 Y163.83 E10.68287
G1 X68.689 Y163.521 E10.71459
G1 X66.175 Y162.62 E10.80341
G1 X65.495 Y162.366 E10.82755
G1 X64.631 Y162 E10.85876
G1 X63.785 Y161.553 E10.89059
G1 X63.495 Y161.38 E10.90182
G1 X62.906 Y161.015 E10.92487
G1 X60.552 Y159.515 E11.0177
G1 X59.96 Y159.126 E11.04126
G1 X59.199 Y158.578 E11.07246
G1 X58.466 Y157.947 E11.10462
G1 X58.151 Y157.648 E11.11907
G1 X57.931 Y157.432 E11.12932
G1 X55.786 Y155.285 E11.23026
G1 X55.313 Y154.796 E11.25289
G1 X54.69 Y154.094 E11.28411
G1 X54.182 Y153.419 E11.31221
G1 X54.08 Y153.272 E11.31816
G1 X53.907 Y153.015 E11.32846
G1 X53.629 Y152.589 E11.34538
G1 X52.181 Y150.313 E11.4351
G1 X51.731 Y149.583 E11.46363
G1 X51.081 Y148.359 E11.50972
G1 X51.057 Y148.306 E11.51166
G1 X50.769 Y147.609 E11.53674
G1 X50.502 Y146.889 E11.56228
G1 X49.572 Y144.288 E11.65415
G1 X49.337 Y143.603 E11.67824
G1 X49.071 Y142.703 E11.70945
G1 X48.835 Y141.459 E11.75157
G1 X48.707 Y140.468 E11.7848
G1 X48.391 Y137.723 E11.8767
G1 X48.32 Y137.015 E11.90037
G1 X48.266 Y136.087 E11.93129
G1 X48.253 Y135.14 E11.96279
G1 X48.254 Y99.644 E13.14339
G1 X48.264 Y98.961 E13.16611
G1 X48.317 Y98.033 E13.19703
G1 X48.398 Y97.219 E13.22423
G1 X48.737 Y94.28 E13.32263
G1 X48.825 Y93.592 E13.3457
G1 X48.983 Y92.668 E13.37688
G1 X49.326 Y91.434 E13.41948
G1 X49.634 Y90.534 E13.45112
G1 X50.483 Y88.162 E13.53491
G1 X50.792 Y87.335 E13.56428
G1 X51.157 Y86.471 E13.59547
G1 X51.614 Y85.61 E13.62789
G1 X51.782 Y85.33 E13.63875
G1 X52.163 Y84.716 E13.66279
G1 X53.635 Y82.405 E13.75392
G1 X54.022 Y81.815 E13.77739
G1 X54.569 Y81.053 E13.80859
G1 X55.282 Y80.234 E13.8447
G1 X55.724 Y79.776 E13.86587
G1 X57.84 Y77.661 E13.96538
G1 X58.321 Y77.192 E13.98772
G1 X59.019 Y76.567 E14.01888
G0 F6000 X59.286 Y76.865
G1 F1200 X59.984 Y76.34 E14.04793
G1 X60.161 Y76.218 E14.05508
G1 X60.4 Y76.058 E14.06465
G1 X60.725 Y75.848 E14.07752
G1 X63.069 Y74.356 E14.16994
G1 X63.779 Y73.918 E14.19768
G1 X64.583 Y73.469 E14.22831
G1 X65.104 Y73.226 E14.24743
G1 X65.166 Y73.199 E14.24968
G1 X65.709 Y72.98 E14.26915
G1 X66.393 Y72.727 E14.29341
G1 X68.996 Y71.795 E14.38537
G1 X69.703 Y71.554 E14.41021
G1 X70.586 Y71.295 E14.44082
G1 X71.753 Y71.076 E14.48031
G1 X72.702 Y70.953 E14.51214
G1 X75.477 Y70.633 E14.60505
G1 X76.188 Y70.562 E14.62881
G1 X77.077 Y70.511 E14.65843
G1 X78.015 Y70.498 E14.68963
G1 X159.541 Y70.498 E17.4012
G1 X160.385 Y70.509 E17.42927
G1 X161.283 Y70.56 E17.45919
G1 X162.2 Y70.653 E17.48984
G1 X165.074 Y70.985 E17.58607
G1 X165.716 Y71.068 E17.6076
G1 X166.623 Y71.226 E17.63822
G1 X167.772 Y71.546 E17.67789
G1 X168.69 Y71.86 E17.71016
G1 X171.19 Y72.756 E17.79849
G1 X171.871 Y73.011 E17.82267
G1 X172.718 Y73.371 E17.85328
G1 X173.413 Y73.735 E17.87938
G1 X173.81 Y73.969 E17.89471
G1 X174.415 Y74.345 E17.9184
G1 X176.715 Y75.81 E18.0091
G1 X177.299 Y76.193 E18.03233
G1 X178.046 Y76.731 E18.06294
G1 X178.639 Y77.235 E18.08883
G1 X178.791 Y77.374 E18.09568
G1 X179.052 Y77.62 E18.10761
G1 X179.364 Y77.927 E18.12217
G1 X181.407 Y79.97 E18.21826
G1 X181.876 Y80.452 E18.24063
G1 X182.489 Y81.139 E18.27125
G1 X183.029 Y81.86 E18.30122
G1 X183.26 Y82.203 E18.31497
G1 X183.537 Y82.629 E18.33187
G1 X185.057 Y85.021 E18.42613
G1 X185.419 Y85.607 E18.44904
G1 X185.868 Y86.411 E18.47967
G1 X186.111 Y86.927 E18.49864
G1 X186.358 Y87.531 E18.52034
G1 X186.623 Y88.246 E18.54571
G1 X187.548 Y90.833 E18.63709
G1 X187.783 Y91.516 E18.66111
G1 X188.045 Y92.399 E18.69174
G1 X188.271 Y93.592 E18.73213
G1 X188.393 Y94.535 E18.76375
G1 X188.693 Y97.143 E18.85107
G1 X188.783 Y98.028 E18.88066
G1 X188.836 Y98.936 E18.91091
G1 X188.848 Y99.828 E18.94058
G1 X188.847 Y135.349 E20.12201
G1 X188.837 Y136.036 E20.14486
G1 X188.786 Y136.933 E20.17475
G1 X188.707 Y137.726 E20.20125
G1 X188.37 Y140.654 E20.29928
G1 X188.281 Y141.352 E20.32268
G1 X188.125 Y142.259 E20.35329
G1 X187.798 Y143.434 E20.39386
G1 X187.484 Y144.352 E20.42613
G1 X186.588 Y146.848 E20.51433
G1 X186.334 Y147.527 E20.53844
G1 X185.974 Y148.374 E20.56906
G1 X185.583 Y149.118 E20.59701
G1 X185.378 Y149.462 E20.61033
G1 X185.006 Y150.062 E20.63381
G1 X183.643 Y152.203 E20.71822
G1 X183.146 Y152.961 E20.74837
G1 X182.609 Y153.709 E20.779
G1 X182.063 Y154.348 E20.80695
G1 X181.927 Y154.495 E20.81361
G1 X181.729 Y154.702 E20.82314
G1 X181.434 Y155.003 E20.83716
G1 X179.369 Y157.068 E20.93429
G1 X178.886 Y157.537 E20.95668
G1 X178.199 Y158.149 E20.98728
G1 X177.539 Y158.645 E21.01474
G1 X177.386 Y158.751 E21.02093
G1 X177.112 Y158.934 E21.03189
G1 X176.722 Y159.186 E21.04734
G1 X174.338 Y160.703 E21.14132
G1 X173.711 Y161.089 E21.16581
G1 X172.907 Y161.537 E21.19642
G1 X172.091 Y161.904 E21.22618
G1 X171.78 Y162.025 E21.23728
G1 X171.112 Y162.272 E21.26097
G1 X168.504 Y163.205 E21.35309
G1 X167.823 Y163.439 E21.37704
G1 X166.94 Y163.7 E21.40767
G1 X165.759 Y163.924 E21.44765
G1 X165.036 Y164.019 E21.4719
G1 X162.034 Y164.365 E21.57241
G1 X161.318 Y164.437 E21.59635
G1 X160.422 Y164.489 E21.6262
G1 X159.484 Y164.502 E21.6574
G1 X77.805 Y164.501 E24.37405
G1 X77.122 Y164.491 E24.39677
G1 X76.227 Y164.44 E24.42659
G1 X75.247 Y164.341 E24.45935
G1 X72.475 Y164.02 E24.55216
G1 X71.785 Y163.931 E24.5753
G1 X70.878 Y163.774 E24.60592
G1 X69.72 Y163.451 E24.6459
G1 X68.824 Y163.144 E24.6774
G1 X66.315 Y162.245 E24.76605
G1 X65.635 Y161.991 E24.79019
G1 X64.787 Y161.632 E24.82082
G1 X63.987 Y161.208 E24.85093
G1 X63.705 Y161.039 E24.86187
G1 X63.121 Y160.678 E24.8847
G1 X60.772 Y159.181 E24.97735
G1 X60.18 Y158.792 E25.00091
G1 X59.433 Y158.253 E25.03155
G1 X58.74 Y157.656 E25.06197
G1 X58.43 Y157.362 E25.07618
G1 X58.305 Y157.24 E25.08199
G1 X56.073 Y155.007 E25.187
G1 X55.6 Y154.518 E25.20963
G1 X54.989 Y153.829 E25.24026
G1 X54.51 Y153.191 E25.26679
G1 X54.408 Y153.044 E25.27274
G1 X54.242 Y152.797 E25.28264
G1 X53.967 Y152.374 E25.29942
G1 X52.433 Y149.961 E25.39452
G1 X52.072 Y149.374 E25.41744
G1 X51.445 Y148.194 E25.46189
G1 X51.421 Y148.141 E25.46382
G1 X51.144 Y147.469 E25.488
G1 X50.879 Y146.754 E25.51336
G1 X49.951 Y144.158 E25.60505
G1 X49.716 Y143.473 E25.62914
G1 X49.455 Y142.59 E25.65976
G1 X49.231 Y141.407 E25.69981
G1 X49.123 Y140.581 E25.72752
G1 X48.806 Y137.84 E25.81929
G1 X48.718 Y136.975 E25.84821
G1 X48.666 Y136.081 E25.87799
G1 X48.653 Y135.14 E25.9093
G1 X48.654 Y99.65 E27.0897
G1 X48.664 Y98.967 E27.11242
G1 X48.715 Y98.072 E27.14223
G1 X48.814 Y97.092 E27.17499
G1 X49.134 Y94.331 E27.26744
G1 X49.222 Y93.643 E27.29051
G1 X49.378 Y92.736 E27.32112
G1 X49.704 Y91.564 E27.36158
G1 X50.011 Y90.669 E27.39305
G1 X50.911 Y88.157 E27.4818
G1 X51.166 Y87.475 E27.50602
G1 X51.526 Y86.627 E27.53666
G1 X51.958 Y85.813 E27.56731
G1 X52.122 Y85.54 E27.5779
G1 X52.5 Y84.931 E27.60174
G1 X53.97 Y82.624 E27.69272
G1 X54.357 Y82.034 E27.71619
G1 X54.895 Y81.287 E27.74681
G1 X55.57 Y80.51 E27.78104
G1 X55.852 Y80.216 E27.79459
G1 X58.024 Y78.042 E27.89681
G1 X58.6 Y77.479 E27.92359
G1 X59.286 Y76.865 E27.95422
G0 F6000 X59.553 Y77.164
G1 F1200 X60.211 Y76.67 E27.98158
G1 X60.388 Y76.548 E27.98873
G1 X60.618 Y76.394 E27.99794
G1 X60.94 Y76.185 E28.01071
G1 X63.414 Y74.612 E28.10822
G1 X63.989 Y74.258 E28.13067
G1 X64.778 Y73.819 E28.1607
G1 X65.263 Y73.592 E28.17852
G1 X65.325 Y73.565 E28.18076
G1 X65.848 Y73.355 E28.19951
G1 X66.528 Y73.103 E28.22363
G1 X68.975 Y72.226 E28.31009
G1 X69.832 Y71.933 E28.34021
G1 X70.699 Y71.679 E28.37026
G1 X71.805 Y71.473 E28.40768
G1 X72.748 Y71.351 E28.4393
G1 X75.516 Y71.031 E28.53198
G1 X76.227 Y70.96 E28.55575
G1 X77.083 Y70.911 E28.58426
G1 X78.015 Y70.898 E28.61526
G1 X159.541 Y70.898 E31.32683
G1 X160.38 Y70.909 E31.35474
G1 X161.243 Y70.958 E31.38349
G1 X162.154 Y71.05 E31.41394
G1 X165.023 Y71.382 E31.51
G1 X165.665 Y71.465 E31.53153
G1 X166.554 Y71.621 E31.56155
G1 X167.643 Y71.925 E31.59916
G1 X168.556 Y72.237 E31.63125
G1 X171.05 Y73.131 E31.71937
G1 X171.731 Y73.386 E31.74355
G1 X172.562 Y73.74 E31.7736
G1 X173.215 Y74.082 E31.79811
G1 X173.599 Y74.309 E31.81295
G1 X174.2 Y74.683 E31.83649
G1 X176.496 Y76.145 E31.92703
G1 X177.08 Y76.528 E31.95025
G1 X177.812 Y77.056 E31.98027
G1 X178.369 Y77.53 E32.0046
G1 X178.521 Y77.669 E32.01145
G1 X178.772 Y77.906 E32.02293
G1 X179.082 Y78.21 E32.03737
G1 X181.12 Y80.249 E32.13326
G1 X181.589 Y80.731 E32.15563
G1 X182.19 Y81.405 E32.18566
G1 X182.698 Y82.086 E32.21392
G1 X182.925 Y82.422 E32.22741
G1 X183.2 Y82.844 E32.24416
G1 X184.717 Y85.231 E32.33823
G1 X185.079 Y85.817 E32.36114
G1 X185.519 Y86.606 E32.39118
G1 X185.746 Y87.089 E32.40893
G1 X185.983 Y87.67 E32.4298
G1 X186.247 Y88.381 E32.45503
G1 X187.17 Y90.963 E32.54623
G1 X187.405 Y91.646 E32.57025
G1 X187.661 Y92.513 E32.60032
G1 X187.874 Y93.644 E32.6386
G1 X187.995 Y94.58 E32.66999
G1 X188.31 Y97.327 E32.76195
G1 X188.385 Y98.068 E32.78673
G1 X188.436 Y98.942 E32.81584
G1 X188.448 Y99.828 E32.84532
G1 X188.447 Y135.343 E34.02655
G1 X188.437 Y136.03 E34.0494
G1 X188.388 Y136.893 E34.07815
G1 X188.292 Y137.843 E34.10991
G1 X187.973 Y140.603 E34.20232
G1 X187.884 Y141.301 E34.22572
G1 X187.73 Y142.191 E34.25576
G1 X187.42 Y143.305 E34.29422
G1 X187.159 Y144.07 E34.32111
G1 X186.262 Y146.575 E34.4096
G1 X185.959 Y147.387 E34.43843
G1 X185.606 Y148.218 E34.46846
G1 X185.236 Y148.918 E34.49479
G1 X185.038 Y149.251 E34.50768
G1 X184.668 Y149.847 E34.53101
G1 X183.231 Y152.103 E34.61998
G1 X182.812 Y152.742 E34.64539
G1 X182.284 Y153.475 E34.67544
G1 X181.769 Y154.076 E34.70176
G1 X181.633 Y154.223 E34.70842
G1 X181.443 Y154.423 E34.7176
G1 X181.151 Y154.721 E34.73147
G1 X179.091 Y156.781 E34.82837
G1 X178.608 Y157.25 E34.85076
G1 X177.933 Y157.85 E34.8808
G1 X177.311 Y158.316 E34.90665
G1 X177.158 Y158.422 E34.91284
G1 X176.895 Y158.599 E34.92338
G1 X176.508 Y158.849 E34.93871
G1 X174.128 Y160.362 E35.03251
G1 X173.501 Y160.748 E35.057
G1 X172.712 Y161.187 E35.08703
G1 X171.942 Y161.532 E35.11509
G1 X171.64 Y161.65 E35.12588
G1 X170.977 Y161.896 E35.1494
G1 X168.374 Y162.826 E35.24133
G1 X167.693 Y163.06 E35.26528
G1 X166.826 Y163.316 E35.29535
G1 X165.707 Y163.527 E35.33322
G1 X164.822 Y163.642 E35.36291
G1 X161.994 Y163.967 E35.45759
G1 X161.278 Y164.039 E35.48152
G1 X160.415 Y164.089 E35.51027
G1 X159.484 Y164.102 E35.54124
G1 X77.811 Y164.101 E38.25769
G1 X77.128 Y164.091 E38.28041
G1 X76.267 Y164.042 E38.3091
G1 X75.293 Y163.944 E38.34166
G1 X72.526 Y163.623 E38.4343
G1 X71.836 Y163.534 E38.45744
G1 X70.946 Y163.379 E38.48749
G1 X69.849 Y163.072 E38.52538
G1 X68.959 Y162.767 E38.55667
G1 X66.455 Y161.87 E38.64514
G1 X65.775 Y161.616 E38.66928
G1 X64.944 Y161.263 E38.69931
G1 X64.189 Y160.862 E38.72774
G1 X63.916 Y160.699 E38.73832
G1 X63.336 Y160.34 E38.76101
G1 X60.992 Y158.846 E38.85346
G1 X60.4 Y158.457 E38.87702
G1 X59.668 Y157.929 E38.90704
G1 X59.014 Y157.365 E38.93576
G1 X58.71 Y157.076 E38.94971
G1 X58.585 Y156.954 E38.95552
G1 X56.361 Y154.729 E39.06015
G1 X55.888 Y154.24 E39.08278
G1 X55.289 Y153.563 E39.11285
G1 X54.839 Y152.963 E39.13779
G1 X54.737 Y152.816 E39.14374
G1 X54.577 Y152.578 E39.15328
G1 X54.304 Y152.159 E39.16991
G1 X52.856 Y149.883 E39.25964
G1 X52.413 Y149.164 E39.28772
G1 X51.809 Y148.029 E39.33049
G1 X51.785 Y147.976 E39.33242
G1 X51.519 Y147.33 E39.35566
G1 X51.255 Y146.619 E39.38088
G1 X50.329 Y144.028 E39.4724
G1 X50.094 Y143.343 E39.49649
G1 X49.839 Y142.477 E39.52651
G1 X49.628 Y141.355 E39.56448
G1 X49.501 Y140.376 E39.59732
G1 X49.187 Y137.643 E39.68882
G1 X49.116 Y136.935 E39.71248
G1 X49.066 Y136.075 E39.74114
G1 X49.053 Y135.14 E39.77224
G1 X49.054 Y99.656 E40.95244
G1 X49.064 Y98.973 E40.97516
G1 X49.113 Y98.112 E41.00384
G1 X49.211 Y97.138 E41.0364
G1 X49.53 Y94.382 E41.12868
G1 X49.618 Y93.694 E41.15175
G1 X49.773 Y92.804 E41.18179
G1 X50.083 Y91.693 E41.22016
G1 X50.388 Y90.804 E41.25142
G1 X51.286 Y88.297 E41.33999
G1 X51.541 Y87.615 E41.36421
G1 X51.894 Y86.784 E41.39423
G1 X52.303 Y86.015 E41.4232
G1 X52.462 Y85.751 E41.43345
G1 X52.838 Y85.145 E41.45717
G1 X54.304 Y82.844 E41.54792
